polaris-icons/icons/new-icons/FinancesMajor.svg

<svg width="20" height="20" viewBox="0 0 20 20" fill="none" xmlns="http://www.w3.org/2000/svg">
<path fill-rule="evenodd" clip-rule="evenodd" d="M13.0804 4H9.41957C8.88542 3.99999 8.43956 3.99998 8.07533 4.02974C7.69545 4.06078 7.33879 4.12789 7.00153 4.29973C6.48408 4.56339 6.06338 4.98408 5.79973 5.50153C5.62789 5.83879 5.56078 6.19545 5.52974 6.57533C5.51262 6.78486 5.50535 7.02139 5.50227 7.2862C5.14962 7.31985 4.81708 7.38895 4.50153 7.54973C3.98408 7.81339 3.56338 8.23408 3.29973 8.75153C3.12789 9.08879 3.06078 9.44545 3.02974 9.82533C2.99998 10.1896 2.99999 10.6354 3 11.1696V12.0804C2.99999 12.6146 2.99998 13.0604 3.02974 13.4247C3.06078 13.8046 3.12789 14.1612 3.29973 14.4985C3.56338 15.0159 3.98408 15.4366 4.50153 15.7003C4.83879 15.8721 5.19545 15.9392 5.57533 15.9703C5.93954 16 6.38535 16 6.91946 16H10.5805C11.1146 16 11.5605 16 11.9247 15.9703C12.3046 15.9392 12.6612 15.8721 12.9985 15.7003C13.5159 15.4366 13.9366 15.0159 14.2003 14.4985C14.3721 14.1612 14.4392 13.8046 14.4703 13.4247C14.4874 13.2151 14.4946 12.9786 14.4977 12.7138C14.8504 12.6802 15.1829 12.6111 15.4985 12.4503C16.0159 12.1866 16.4366 11.7659 16.7003 11.2485C16.8721 10.9112 16.9392 10.5546 16.9703 10.1747C17 9.81045 17 9.36462 17 8.8305V7.91955C17 7.38542 17 6.93955 16.9703 6.57533C16.9392 6.19545 16.8721 5.83879 16.7003 5.50153C16.4366 4.98408 16.0159 4.56339 15.4985 4.29973C15.1612 4.12789 14.8046 4.06078 14.4247 4.02974C14.0604 3.99998 13.6146 3.99999 13.0804 4ZM8.7487 7.25H7.00287C7.0059 7.03196 7.01209 6.85258 7.02476 6.69748C7.04822 6.41036 7.0901 6.27307 7.13624 6.18251C7.25608 5.94731 7.44731 5.75609 7.68251 5.63624C7.77307 5.5901 7.91036 5.54822 8.19748 5.52476C8.49336 5.50058 8.87757 5.5 9.45 5.5H13.05C13.6224 5.5 14.0066 5.50058 14.3025 5.52476C14.5896 5.54822 14.7269 5.5901 14.8175 5.63624C15.0527 5.75609 15.2439 5.94731 15.3638 6.18251C15.4099 6.27307 15.4518 6.41036 15.4752 6.69748C15.4994 6.99336 15.5 7.37757 15.5 7.95V8.8C15.5 9.37243 15.4994 9.75665 15.4752 10.0525C15.4518 10.3396 15.4099 10.4769 15.3638 10.5675C15.2439 10.8027 15.0527 10.9939 14.8175 11.1138C14.7508 11.1478 14.6587 11.1794 14.5 11.2031V11.1695C14.5 10.6354 14.5 10.1896 14.4703 9.82533C14.4392 9.44545 14.3721 9.08879 14.2003 8.75153C13.9366 8.23408 13.5159 7.81339 12.9985 7.54973C12.6612 7.37789 12.3046 7.31078 11.9247 7.27974C11.5604 7.24998 11.1146 7.24999 10.5804 7.25H8.7513C8.75087 7.25 8.75043 7.25 8.75 7.25C8.74957 7.25 8.74913 7.25 8.7487 7.25ZM6.67701 8.75016C6.25099 8.75086 5.94366 8.75465 5.69748 8.77476C5.41036 8.79822 5.27307 8.8401 5.18251 8.88624C4.94731 9.00609 4.75608 9.19731 4.63624 9.43251C4.5901 9.52307 4.54822 9.66036 4.52476 9.94748C4.50058 10.2434 4.5 10.6276 4.5 11.2V12.05C4.5 12.6224 4.50058 13.0066 4.52476 13.3025C4.54822 13.5896 4.5901 13.7269 4.63624 13.8175C4.75608 14.0527 4.94731 14.2439 5.18251 14.3638C5.27307 14.4099 5.41036 14.4518 5.69748 14.4752C5.94366 14.4954 6.25099 14.4991 6.67701 14.4998C6.25539 13.731 6 12.7255 6 11.625C6 10.5246 6.25539 9.519 6.67701 8.75016ZM10.823 14.4998C11.249 14.4991 11.5563 14.4954 11.8025 14.4752C12.0896 14.4518 12.2269 14.4099 12.3175 14.3638C12.5527 14.2439 12.7439 14.0527 12.8638 13.8175C12.9099 13.7269 12.9518 13.5896 12.9752 13.3025C12.9994 13.0066 13 12.6224 13 12.05V11.2C13 10.6276 12.9994 10.2434 12.9752 9.94748C12.9518 9.66036 12.9099 9.52307 12.8638 9.43251C12.7439 9.19731 12.5527 9.00609 12.3175 8.88624C12.2269 8.8401 12.0896 8.79822 11.8025 8.77476C11.5563 8.75465 11.249 8.75086 10.823 8.75016C11.2446 9.519 11.5 10.5246 11.5 11.625C11.5 12.7255 11.2446 13.731 10.823 14.4998ZM8.75035 8.75C8.68989 8.75017 8.41257 8.79327 8.07541 9.32967C7.7502 9.84705 7.5 10.6546 7.5 11.625C7.5 12.5954 7.7502 13.403 8.07541 13.9203C8.41323 14.4578 8.69027 14.5 8.75 14.5C8.80973 14.5 9.08677 14.4578 9.42459 13.9203C9.7498 13.403 10 12.5954 10 11.625C10 10.6546 9.7498 9.84705 9.42459 9.32967C9.08743 8.79327 8.8108 8.75017 8.75035 8.75Z" fill="#4A4A4A"/>
</svg>

<svg viewBox="0 0 20 20" xmlns="http://www.w3.org/2000/svg"><path fill-rule="evenodd" d="M13.08 4h-3.66c-.535 0-.98 0-1.345.03-.38.03-.736.098-1.073.27a2.75 2.75 0 0 0-1.202 1.202c-.172.337-.24.693-.27 1.073-.017.21-.025.446-.028.711-.352.034-.685.103-1 .264a2.75 2.75 0 0 0-1.202 1.202c-.172.337-.24.693-.27 1.073-.03.365-.03.81-.03 1.345v.91c0 .535 0 .98.03 1.345.03.38.098.736.27 1.073a2.75 2.75 0 0 0 1.202 1.202c.337.172.693.24 1.073.27.365.03.81.03 1.344.03h3.662c.534 0 .98 0 1.344-.03.38-.03.736-.098 1.073-.27a2.751 2.751 0 0 0 1.202-1.201c.172-.338.24-.694.27-1.074.017-.21.025-.446.028-.711.352-.034.685-.103 1-.264a2.751 2.751 0 0 0 1.202-1.201c.172-.338.24-.694.27-1.074.03-.365.03-.81.03-1.345v-.91c0-.535 0-.98-.03-1.345-.03-.38-.098-.736-.27-1.073a2.75 2.75 0 0 0-1.201-1.202c-.338-.172-.694-.24-1.074-.27-.365-.03-.81-.03-1.345-.03Zm-4.331 3.25h-1.746c.003-.218.01-.397.022-.553.023-.287.065-.424.111-.514a1.25 1.25 0 0 1 .547-.547c.09-.046.227-.088.514-.111.296-.024.68-.025 1.253-.025h3.6c.572 0 .957 0 1.252.025.288.023.425.065.516.111.235.12.426.311.546.547.046.09.088.227.111.514.024.296.025.68.025 1.253v.85c0 .572 0 .957-.025 1.252-.023.288-.065.425-.111.516a1.25 1.25 0 0 1-.546.546 1.009 1.009 0 0 1-.318.09v-.035c0-.534 0-.98-.03-1.344-.03-.38-.098-.736-.27-1.073a2.75 2.75 0 0 0-1.201-1.202c-.338-.172-.694-.24-1.074-.27-.365-.03-.81-.03-1.345-.03h-1.831Zm-2.072 1.5c-.426 0-.733.005-.98.025-.287.023-.424.065-.514.111a1.25 1.25 0 0 0-.547.547c-.046.09-.088.227-.111.514-.024.296-.025.68-.025 1.253v.85c0 .572 0 .957.025 1.252.023.288.065.425.111.516.12.235.311.426.547.546.09.046.227.088.514.111.247.02.554.024.98.025-.422-.769-.677-1.774-.677-2.875 0-1.1.255-2.106.677-2.875Zm4.146 5.75c.426 0 .733-.005.98-.025.287-.023.424-.065.514-.111a1.25 1.25 0 0 0 .547-.546c.046-.091.088-.228.111-.515.024-.296.025-.68.025-1.253v-.85c0-.572 0-.957-.025-1.253-.023-.287-.065-.424-.111-.514a1.25 1.25 0 0 0-.546-.547c-.091-.046-.228-.088-.515-.111-.247-.02-.554-.024-.98-.025.422.769.677 1.775.677 2.875s-.255 2.106-.677 2.875Zm-2.073-5.75c-.06 0-.337.043-.675.58-.325.517-.575 1.325-.575 2.295s.25 1.778.575 2.295c.338.538.615.58.675.58.06 0 .337-.042.675-.58.325-.517.575-1.325.575-2.295s-.25-1.778-.575-2.295c-.338-.537-.614-.58-.675-.58Z" fill="#5C5F62"/></svg>
